**kern
*staff1
*head1[head1]
*solo1[solo1]
*solo2[solo2]
*solo3[solo3]
*clefG2
*k[]
*B-:
*M4/4
*>head1
8B-/L
8A/J
=1
{8B-/L
8f/
8e/
8f/J
8d/
4B-/
[8d/
=2||
8d/]
4c/
8r
4r
8B-/L
8A/J
=3
8B-/L
8F/
8E/
8F/J
8d/
4f/
[8f#/
=4
8f#/]
4c/
8r
4r
8B-/L
8A/J
=5
8B-/
8r
8r
8F/
4B-/
4B-/
=6
8r
4B-/
8G/
8d/L
8c/
8F#/
8G/J
=7
8d/L
8B-/
8c/
8B-/J
8d/L
8E-/J}
8r
*>solo1
{16dd\LL
16cc\JJ
=8
8b-/L
8g/
8e-/
8c/J
8d-/L
8B-/
8G/
8A/J
=9
8c/L
8B-/
8A/J
24c/LL
24e-/
24g-/JJ
8f/L
8e-/J
12d/L
12f/
12a/J
=10||
8cc\L
8b-\
8a\
8b-\J
8cc/L
[8f/J
4f/]}
=11
4r
8r
{4cc\
8dd\
12ee-\L
12dd\
12dd-\J
=12
8cc\L
8b\
8b-\
8g-\J
8e-/L
8c/
8a-/
8g-/J
=13
8f/L
8e-/
8d/
8c/J
8A/L
8B-/
8c/
8A/J
=14
8B-/L
8c/
8d/
8e-/J
8f/L
8g/
8a/
8b-/J
=15
8ee/L
8f/J}
4r
4r
8r
{24ee\LL
24dd\
24cc\JJ
=16
8b/L
8c#/
8d/
8e/J
8f/L
8g/
8a-/
8g/J
=17
8f/L
8e-/
8d/
8B/J
8c/L
8B/
8c/
8d/J
=18||
8e-/L
8f/
8f#/
8g/J
8dd\L
8dd-\
8cc\
8b\J
=19
8b-/L
8g-/
8e-/
8c/J
8a-/L
8g-/
8B/
8A/J
=20
8B-/L
8e-/
8c/
8c#/J
8d/L
8cn/
8Bn/
8d/J
=21
8f/L
8a-/
8g/
8f/J
12e/L
12g/
12b-/J
8dd/L
8g/J
=22
8a/L
8cc/
8b-/
8a/J
8g/L
8f/
8e/
8c/J
=23
8c#/L
8d/
8B-/
8G/J
8cn/L
8A/J
16B-/LL
16d/
16f/
16a/JJ
=24
8dd\L
8cc\
8dd\
8cc\J}
4r
*>solo2
{4f/
=25
4dd\
2f/}
4r
=26||
2r
4r
{8gg-\L
16ff\L
16ee\JJ
=27
4ee-\
8ee-\L
16dd\L
16dd-\JJ
4cc\
8r
8b\
=28
8b-/L
8g-/
8e-/
8c/J
8a-/L
8g-/
8B/
8A/J
=29
8B-/L
8e-/
8c/
8c#/J
8d/L
8cn/
8G/
8A/J
=30
8c/L
8B-/
8A/
8B-/J
8d/L
8f/
8g/
8a/J
=31
8b-/L
8a/J}
4r
2r
=32
4r
{8ee\L
16dd\L
16cc\JJ
8b/L
8c#/
8d/
8e/J
=33
8f/L
8g/
8a-/
8g/J
8f/L
8e-/
8d/
8B/J
=34
8c/L
8B/
8c/
8d/J
8e-/L
8f/J
12g-/L
12a-/
12g-/J
=35
8f/L
8e-/J
12d/L
12f/
12a/J
8cc/L
8b-/
8a/
8g/J
=36
8f/L
8e-/
8d/
8c/J
8B/L
8a-/
8f/
8f#/J
=37
8g/L
8f/J
12e/L
12g/
12b-/J
8dd/L
8g/
8a/
8cc/J
=38
8b-/L
8a/
8g/J}
8r
2r
=39
8r
{8c#/
12d/L
12f/
12a/J
8cc/L
8a/J
12b-\L
12cc\
12b-\J
=40
8a/L
8g/
8e-/
8c/J
8f/L
8e-/
8d/
8c/J
=41
*>solo3
4b-\
8f/L
8b-/J
8dd\L
8ee-\
8dd\
8cc\J
=42||
8b-/L
8g/
8e-/
8c/J
8d/L
8B-/
8G/
8A/J
=43
8c/L
8B-/
8A/
8B-/J
8e-/L
8g-/
8e-/
8c/J
=44
2.a-/
8g-/L
8e/J
=45
8f\L
8ee-\
8cc\
8cc#\J
8dd/L
[8a/J
4a/]}
=46
1r
=47
4r
{12ee\L
12ff\
12ff#\J
8gg\L
8gg-\
8ff#\
8ee\J
=48
8dd\L
16dd-\L
16cc\JJ
4b\
8r
8c#/L
8d/
8e/J
=49
8f/L
8g/
8a-/
8g/J
8f/L
8e-/
8d/
8B/J
=50
8c/L
8B/
8c/
8d/J
8e-/L
8f/J
12g-/L
12a-/
12g-/J
=51
8f/L
8e-/J
12d/L
12f/
12a/J
8cc/L
8b-/
8a/
8g/J
=52
8f/L
8e-/
8d/
8c/J
8B/L
8a-/
8f/
8f#/J
=53
8g/L
8f/J
12e/L
12g/
12b-/J
8dd/L
8g/
8a/
8cc/J
=54
8b-/L
8d/
8d#/
8e/J
8a/L
8g/
8e/
8c/J
=55
8f/L
8c/
8d/
[8e-/J
4e-/]}
4r
=56
1r
=57
8r
{8f#/
12g\L
12b-\
12dd\J
8ff\
8r
8ff\L
[8ee-\J
=58||
8ee-\L]
8cc\
8dd\
[8a\J
4a/]
8cc/L
8a/J
=59
8b-/L
8g-/J}
4r
8r
{16dd-\LL
16cc\J
8b-\
8g-\J
=60
8e-/L
8g-/
8b-/
8dd-/J
8cc/L
8b-/
8a/
8gn/J
=61
8f#/L
8g/
8b-/
8g/J
8e-/L
8c/
8fn/
8e-/J
=62
8d/L
8B-/
8G/
8A/J
8c/L
8B-/
8A/
8B-/J
=63
8d/L
[8g/J
4g/]}
2r
=64
4r
{8ee-\L
16dd\L
16cc\JJ
8b/L
8d/
8f/
8a-/J
=65
8g/L
8f/J
12e-/L
12g/
12b-/J
8dd\L
8dd-\
8cc\
8bn\J
=66||
8b-/L
8g/
8e-/
8c/J
8a-/L
8g-/J}
4r
=67
8r
{8c#/
12d/L
12f/
12a/J
8cc/L
8b-/
8a/
8g/J
=68
8f/L
8e-/
8d/
8c/J
8B/L
8a-/
8f/
8f#/J
=69
8g/L
8f/J
12e/L
12g/
12b-/J
8dd/L
8g/
8a/
8cc/J
=70
8b-/L
8g/
8e-/
8c/J
4a/
4r
=71
8r
8c#/
12d/L
12f/
12a/J
8cc/L
8a/J
12b-\L
12cc\
12b-\J
=72
8a/L
8g/
8e-/
8c/J
8f/L
8e-/
8d/
8c/J
=73
8A/L
8G/
8A/
[8G/J
4G/]}
4r
==
*-
